svgs/light/file-circle-question.svg

<svg xmlns="http://www.w3.org/2000/svg" viewBox="0 0 576 512"><!--! Font Awesome Pro 6.5.1 by @fontawesome - https://fontawesome.com License - https://fontawesome.com/license (Commercial License) Copyright 2023 Fonticons, Inc. --><path d="M64 480H296.2c9.8 11.8 21 22.3 33.5 31.3c-3.2 .5-6.4 .7-9.7 .7H64c-35.3 0-64-28.7-64-64V64C0 28.7 28.7 0 64 0H220.1c12.7 0 24.9 5.1 33.9 14.1L369.9 129.9c9 9 14.1 21.2 14.1 33.9v34.7c-11.2 3.2-21.9 7.4-32 12.6V192H240c-26.5 0-48-21.5-48-48V32H64C46.3 32 32 46.3 32 64V448c0 17.7 14.3 32 32 32zM351.5 160c-.7-2.8-2.1-5.4-4.2-7.4L231.4 36.7c-2.1-2.1-4.6-3.5-7.4-4.2V144c0 8.8 7.2 16 16 16H351.5zM544 368a112 112 0 1 0 -224 0 112 112 0 1 0 224 0zm-256 0a144 144 0 1 1 288 0 144 144 0 1 1 -288 0zm144 48a16 16 0 1 1 0 32 16 16 0 1 1 0-32zm-64-86.4c0-23 18.6-41.6 41.6-41.6h40.5c25.4 0 45.9 20.6 45.9 45.9c0 17.1-9.5 32.7-24.5 40.6l-23.7 12.5c-1.4 7.4-7.9 12.9-15.7 12.9c-8.8 0-16-7.2-16-16v-6.8c0-5.9 3.3-11.4 8.6-14.2l32-16.8c4.6-2.4 7.4-7.2 7.4-12.3c0-7.7-6.2-13.9-13.9-13.9H409.6c-5.3 0-9.6 4.3-9.6 9.6V336c0 8.8-7.2 16-16 16s-16-7.2-16-16v-6.4z"/></svg>

<svg xmlns="http://www.w3.org/2000/svg" viewBox="0 0 576 512"><!--! Font Awesome Pro 6.1.1 by @fontawesome - https://fontawesome.com License - https://fontawesome.com/license (Commercial License) Copyright 2022 Fonticons, Inc. --><path d="M64 480H296.2C305.1 491.8 317.3 502.3 329.7 511.3C326.6 511.7 323.3 512 320 512H64C28.65 512 0 483.3 0 448V64C0 28.65 28.65 0 64 0H220.1C232.8 0 245.1 5.057 254.1 14.06L369.9 129.9C378.9 138.9 384 151.2 384 163.9V198.6C372.8 201.8 362.1 206 352 211.2V192H240C213.5 192 192 170.5 192 144V32H64C46.33 32 32 46.33 32 64V448C32 465.7 46.33 480 64 480V480zM347.3 152.6L231.4 36.69C229.4 34.62 226.8 33.18 224 32.48V144C224 152.8 231.2 160 240 160H351.5C350.8 157.2 349.4 154.6 347.3 152.6zM416 432C416 423.2 423.2 416 432 416C440.8 416 448 423.2 448 432C448 440.8 440.8 448 432 448C423.2 448 416 440.8 416 432zM368 329.6C368 306.6 386.6 288 409.6 288H450.1C475.4 288 496 308.6 496 333.9C496 350.1 486.6 366.6 471.5 374.6L447.7 387.1C446.3 394.4 439.8 400 432 400C423.2 400 416 392.8 416 384V377.2C416 371.3 419.3 365.9 424.6 363.1L456.6 346.3C461.1 343.8 464 339.1 464 333.9C464 326.2 457.8 320 450.1 320H409.6C404.3 320 400 324.3 400 329.6V336C400 344.8 392.8 352 384 352C375.2 352 368 344.8 368 336L368 329.6zM576 368C576 447.5 511.5 512 432 512C352.5 512 288 447.5 288 368C288 288.5 352.5 224 432 224C511.5 224 576 288.5 576 368zM432 256C370.1 256 320 306.1 320 368C320 429.9 370.1 480 432 480C493.9 480 544 429.9 544 368C544 306.1 493.9 256 432 256z"/></svg>
